Papirus/symbolic/apps/firefox-symbolic.svg

<svg xmlns="http://www.w3.org/2000/svg" width="16" height="16" version="1.1">
 <path style="opacity:0.3;fill:#444444" d="M 8,4 C 7.6741188,4.000412 7.3358556,4.0602876 7.0371698,4.1207761 6.6905445,4.1909731 6.3629537,4.3378619 6.0527344,4.5117188 6.2872688,4.6972513 6.5275187,4.8933667 6.6679688,5.0039062 7.247047,5.4596634 7.9686846,5.7349865 8.1445312,5.7832031 8.3208277,5.8308985 8.4570989,5.9709134 8.5,6.1484375 8.5463598,6.3403371 8.4783272,6.6850278 8.296875,6.9082031 8.1154228,7.1313785 7.854593,7.3399093 7.40625,7.6347656 7.3289215,7.6856222 7.2389959,7.7140198 7.1464844,7.7167969 6.2653688,7.7449132 5.7983606,7.9009886 5.484375,8.0996094 5.1541144,8.3212489 5.0495285,8.4581101 5.0214844,8.5429688 c -0.028348,0.085777 -0.025641,0.2517423 0.099609,0.6171874 0.040421,0.1179382 0.0971,0.238644 0.1679687,0.3613282 -0.00573,-0.00993 -0.00525,-0.00792 0.00391,0.00781 0.068266,0.1170499 0.1501358,0.2351249 0.2441406,0.3476562 0.0013,6.453e-4 0.00261,0.0013 0.00391,0.00195 -6.528e-4,6.493e-4 -0.0013,0.0013 -0.00195,0.00195 0.0013,6.453e-4 0.00261,0.0013 0.00391,0.00195 0.013218,0.015583 0.023111,0.024684 0.025391,0.027344 v 0.00195 l 0.00195,0.00195 c 0.098878,0.1141304 0.2070999,0.2236244 0.328125,0.3261714 0.1200852,0.101751 0.2562001,0.199161 0.4003906,0.289063 6.492e-4,6.53e-4 0.0013,0.0013 0.00195,0.002 0.010506,0.0067 0.029307,0.01618 0.050781,0.0293 0.4995384,0.299612 1.1431363,0.492444 1.8710937,0.533203 C 9.6311587,10.936255 10.723889,9.7284631 10.724609,8.2871094 10.723179,7.1997353 10.095812,6.2160495 9.1113281,5.7539062 8.6387518,5.5353781 8.7731435,4.8301835 9.2929688,4.8007812 c 0.055835,-0.00344 0.1217576,-0.00707 0.1972656,-0.00781 0.00195,-1.14e-5 0.00391,-1.14e-5 0.00586,0 0.4248152,-3.9e-6 0.7777836,0.1979696 1.1582036,0.328125 C 9.9418065,4.4566934 9.0499281,4 8,4 Z"/>
 <path style="fill:#444444" d="M 10.515625,0 C 8.8250634,1.1489962 8.0896961,2.3107066 7.78125,3.5214844 7.8553136,3.517835 7.925055,3.5 8,3.5 c 2.145862,0 3.942658,1.5166506 4.388672,3.53125 -0.559698,-1.0303264 -1.637994,-1.7382927 -2.8925782,-1.7382812 -0.056896,5.6e-4 -0.1150832,0.00431 -0.171875,0.00781 1.1584832,0.543823 1.8987062,1.7065529 1.9003902,2.9863282 -8.53e-4,1.7066658 -1.3004634,3.151397 -2.9824215,3.318362 C 7.4162837,11.567834 6.6818096,11.342939 6.09375,10.990234 6.0735367,10.977843 6.0531265,10.965749 6.0332031,10.953125 5.8695313,10.851018 5.7159966,10.73957 5.5761719,10.621094 5.4349307,10.501417 5.3082123,10.374757 5.1933594,10.242188 c -6.049e-4,-6.98e-4 -0.00135,-0.0013 -0.00195,-0.002 -0.010663,-0.01225 -0.020775,-0.02483 -0.03125,-0.03711 -0.00178,-0.0021 -0.00409,-0.0037 -0.00586,-0.0059 C 5.0427017,10.063616 4.944297,9.9235097 4.8613281,9.78125 4.8593681,9.77788 4.8574181,9.77486 4.8554681,9.77148 4.7704149,9.6242414 4.7006017,9.4744662 4.6484375,9.3222656 4.3730341,8.5187148 4.4636035,8.1792625 5.2128906,7.6796875 5.6198786,7.4213362 6.1921264,7.2467518 7.1308594,7.2167969 7.9883895,6.6528354 8.0549212,6.4363706 8.0136719,6.265625 c -3.301e-4,-9.02e-5 -0.00162,9.09e-5 -0.00195,0 C 7.7445047,6.1923549 7.0114494,5.9096923 6.359375,5.3964844 6.0995274,5.1919743 5.794656,4.8963123 5.4003906,4.6289062 5.2474092,4.1214498 5.1280384,3.5606211 5.328125,2.4941406 4.5577864,2.7473889 3.9316856,3.4150158 3.4023438,4.0097656 3.389189,4.0095305 3.3785071,4.0079365 3.3652344,4.0078125 3.0468714,3.3947853 3.1054237,2.5911714 3.0742188,1.8632812 1.4082256,3.1516345 0.28757924,5.0824831 0.05859375,7.2753906 0.05073451,7.3232743 0.04720666,7.3889574 0.04101562,7.4414062 0.03185316,7.551751 0.01430737,7.6599052 0.00976563,7.7714844 0.01046847,7.7967049 0.01461667,7.8205888 0.015625,7.8457031 0.01233422,7.9340659 0,7.9948126 0,8.09375 0,12.460413 3.5817222,16 8,16 c 4.418278,0 8,-3.539587 8,-7.90625 0,-2.032978 -0.777057,-3.8863363 -2.052734,-5.2871094 0.02844,-0.00108 -0.119151,-0.116233 -0.195313,-0.087891 0.452281,0.749666 0.729126,1.613894 0.806641,2.5332031 C 14.524374,5.1965317 14.486784,5.1390005 14.449219,5.0820308 14.332349,4.8995185 14.18604,4.7119362 14.074219,4.5546875 12.464561,2.4931042 10.995342,1.8941158 10.515625,0 Z"/>
</svg>

<svg xmlns="http://www.w3.org/2000/svg" width="16" height="16" version="1.1">
 <path style="opacity:0.3;fill:#444444" d="M 8,4 7.6934,4.0137 C 7.1169,4.0592 6.5572,4.2291 6.0527,4.5117 6.3346,4.7339 6.6527,4.9903 6.668,5.0039 6.6695,5.0051 6.6704,5.0047 6.6719,5.0059 7.2501,5.4595 7.9694,5.7352 8.1445,5.7832 8.3208,5.8309 8.4571,5.9709 8.5,6.1484 8.5463,6.3402 8.4783,6.685 8.2969,6.9082 8.1154,7.1314 7.8546,7.3399 7.4062,7.6348 7.3289,7.6856 7.239,7.714 7.1465,7.7168 6.2653,7.745 5.7983,7.901 5.4844,8.0996 5.1541,8.3213 5.0495,8.4581 5.0215,8.543 4.9931,8.6287 4.9958,8.7947 5.1211,9.1602 5.2917,9.6576 5.5886,10.046 6.2087,10.466 6.8288,10.886 7.5851,11 8.209,11 9.6286,11 10.724,9.7338 10.725,8.2871 10.723,7.1996 10.096,6.216 9.1113,5.7539 8.6361,5.5331 8.7773,4.823 9.3008,4.8008 L 9.4961,4.793 C 9.921,4.793 10.274,4.9909 10.654,5.1211 9.942,4.4567 9.05,4 8,4 Z"/>
 <path style="fill:#444444" d="M 10.516,0 C 8.8251,1.149 8.0897,2.3107 7.7812,3.5215 7.7812,3.5215 7.9251,3.5 8,3.5 10.146,3.5 11.943,5.0167 12.389,7.0312 11.829,6.0009 10.751,5.293 9.4961,5.293 L 9.3242,5.3008 C 10.483,5.8446 11.223,7.0073 11.225,8.2871 11.224,9.9938 9.9241,11.439 8.2422,11.605 7.4955,11.623 6.6603,11.377 6.0937,10.99 5.2582,10.425 4.856,9.9277 4.6484,9.3223 4.373,8.5187 4.4636,8.1793 5.2129,7.6797 5.6199,7.4213 6.1921,7.2468 7.1309,7.2168 7.9884,6.6528 8.0549,6.4364 8.0137,6.2656 H 8.0117 C 7.7445,6.1924 7.0114,5.9097 6.3594,5.3965 6.3594,5.3965 5.7947,4.8963 5.4004,4.6289 5.2474,4.1214 5.128,3.5606 5.3281,2.4941 4.5578,2.7474 3.9317,3.415 3.4023,4.0098 L 3.3652,4.0078 C 3.0469,3.3948 3.0742,1.8633 3.0742,1.8633 1.4082,3.1516 0,5.2485 0,8.0937 0,12.46 3.5817,16 8,16 12.418,16 16,12.46 16,8.0937 16,6.0608 15.223,4.2074 13.947,2.8066 13.947,2.8066 13.828,2.6904 13.752,2.7187 14.204,3.4684 14.481,4.3326 14.559,5.252 L 14.074,4.5547 C 12.465,2.4931 10.995,1.8941 10.516,0 Z"/>
</svg>
